src/assets/mobile.svg

<svg xmlns="http://www.w3.org/2000/svg" width="800" height="800" viewBox="0 0 1000 1500"><path d="M187 0h626c103.277 0 187 83.723 187 187v1126c0 103.277-83.723 187-187 187H187c-103.277 0-187-83.723-187-187V187C0 83.723 83.723 0 187 0m-62 1000h750V250H125Zm375 125c-69.036 0-125 55.964-125 125s55.964 125 125 125 125-55.964 125-125-55.964-125-125-125"/></svg>

<?xml version="1.0" encoding="utf-8"?><!-- Uploaded to: SVG Repo, www.svgrepo.com, Generator: SVG Repo Mixer Tools -->
<svg width="800px" height="800px" viewBox="0 0 1000 1500" xmlns="http://www.w3.org/2000/svg">
<path d="M 187 0 L 813 0 C 916.277 0 1000 83.723 1000 187 L 1000 1313 C 1000 1416.277 916.277 1500 813 1500 L 187 1500 C 83.723 1500 0 1416.277 0 1313 L 0 187 C 0 83.723 83.723 0 187 0 Z M 125 1000 L 875 1000 L 875 250 L 125 250 Z M 500 1125 C 430.964 1125 375 1180.964 375 1250 C 375 1319.036 430.964 1375 500 1375 C 569.036 1375 625 1319.036 625 1250 C 625 1180.964 569.036 1125 500 1125 Z"/>
</svg>
